X: 41
T: Missa L'homme arm\'e / Kyrie
N: Derived from Ock1008a-Missa_Lhomme_arme-Kyrie.krn
C: Johannes Ockeghem
%%abc-version 2.0
%%abcx-abcm2ps-target-version 5.9.1 (29 Sep 2008)
%%abc-creator hum2abc beta
%%abcx-conversion-date 2019/02/17 07:26:14
%%abc-edited-by Jesse Rodin
%%abc-edited-by Jesse Rodin; Victoria Chang 2012/03/27
%%abcx-initial-encoding-date 2012/03/27/
%%humdrum-veritas 751359396
%%humdrum-veritas-data 117470629
%%linebreak <none>
%%barnumbers 0
L: 1/4
M: 3/1
Q: 1/2=120
%%staves [1 2 3 4]
V: 1 clef=treble
V: 2 clef=treble-8
V: 3 clef=treble-8
V: 4 clef=bass
K: C
[V:1] G6A2B3c | 
[V:2] d8d4 | 
[V:3] G8G4 :
[V:4] G,12 | 
[V:1] A6GFE4 | 
[V:2] f4e3fg2a2 | 
[V:3] c8c4 | 
[V:4] F,3E,C,8 | 
[V:1] D4z4c4 | 
[V:2] d2g4^f2^f2e2 | 
[V:3] B4A8 :
[V:4] G,4C6B,A, | 
[V:1] d6e4d2 | 
[V:2] g8g3e | 
[V:3] G12 | 
[V:4] B,8G,4 | 
[V:1] c2BAG2c3BB2 | 
[V:2] f2g4e2d4 | 
[V:3] z12 :
[V:4] A,2B,4C2G,4 | 
[V:1] A2d4c2B2A2 | 
[V:2] c2B2G2z2d4 | 
[V:3] z12 | 
[V:4] z2G,4E,2D,3F, | 
[V:1] c2B4A4G2 | 
[V:2] c2d2A4B4 | 
[V:3] z12 :
[V:4] E,2D,2F,4G,4 | 
[V:1] A6F2E4 | 
[V:2] A4d2d3Bc2 | 
[V:3] d4d4G4 | 
[V:4] F,2D,4D,2E,2C,2 | 
[V:1] D4G4A4 | 
[V:2] A2B3Gg3e^f2 | 
[V:3] z12 :
[V:4] D,2G,4B,2A,2D2 | 
[V:1] B4G2A2B2d2- | 
[V:2] g4z4g4 | 
[V:3] z4d4d4 | 
[V:4] z2G,4F,2G,4 | 
[V:1] dcA8F2 | 
[V:2] f4e2c2f4 | 
[V:3] d4c8 :
[V:4] D,4z2F,4A,2 | 
[V:1] G3F/E/D2G4^F2 | 
[V:2] e2g3fe2d4 | 
[V:3] B4A8 | 
[V:4] G,2E,2F,2G,2D,4 | 
[V:1] G12 ||  
[V:2] d12 ||  
[V:3] G12 ||  
[V:4] G,12 ||  
[V:1] [M:3/1]G4B2c2A3G | 
[V:2] [M:3/1]d6c6 | 
[V:3] [M:3/1]g4g2f4f2 | 
[V:4] [M:3/1]G,4G,2A,6 | 
[V:1] B2G2c2d2f4 | 
[V:2] d2e4f4d2 | 
[V:3] g4g2d6 | 
[V:4] G,2C4B,6 | 
[V:1] e2d4c4B2 | 
[V:2] c2B2c2e2d4 | 
[V:3] g4g2f4f2 | 
[V:4] C2G,2C4D4 | 
[V:1] c4A2F2_B4 | 
[V:2] e4c2d2G4 | 
[V:3] g4e2d6 | 
[V:4] C6_B,4G,2 | 
[V:1] A2G4F4E2 | 
[V:2] c8B4 | 
[V:3] z6z4g2 | 
[V:4] F,2C,2F,2A,2G,4 | 
[V:1] F4z2A3BcB/c/ | 
[V:2] c4e2fga4 | 
[V:3] a4g2f2e4 | 
[V:4] F,4C2D2CB,A,2 | 
[V:1] d3B2GG^F/G/AEF2 | 
[V:2] g3fedd4c2 | 
[V:3] d6d6 | 
[V:4] B,2G,4B,2A,4 | 
[V:1] G12 ||  
[V:2] d12 ||  
[V:3] G12 ||  
[V:4] G,12 ||  
[V:1] [M:3/1]D8D4 | 
[V:2] [M:3/1]g12 | 
[V:3] [M:3/1]G8G4 :
[V:4] [M:3/1]G,8_B,4 | 
[V:1] E4A6G2 | 
[V:2] e4f6d2 | 
[V:3] c8c4 | 
[V:4] A,4F,8 | 
[V:1] G6^F2F2E2 | 
[V:2] d4z4d4 | 
[V:3] B4A8 :
[V:4] G,4D,8 | 
[V:1] G4z4E4 | 
[V:2] B8B4 | 
[V:3] G12 | 
[V:4] D8G,4 | 
[V:1] F3GA2_B4G2 | 
[V:2] A4z4z4 | 
[V:3] d4d4G4 :
[V:4] D,8z4 | 
[V:1] _B2A4F2E4 | 
[V:2] d6B2c4 | 
[V:3] z12 | 
[V:4] D,4F,3G,A,4 | 
[V:1] D4z4F4 | 
[V:2] d3cA8 | 
[V:3] z4d4d4 :
[V:4] D,8D,4 | 
[V:1] G4A6G2 | 
[V:2] z4e4f4 | 
[V:3] d4c8 | 
[V:4] G,4C,4F,4 | 
[V:1] G4F2E4C2 | 
[V:2] d4c3de4 | 
[V:3] B4A8 :
[V:4] z2G,2A,3G,E,2F,2 | 
[V:1] B,2E3DB,2A,2D2- | 
[V:2] z2c3dG2A4 | 
[V:3] G4A2G3EF2 | 
[V:4] G,2C,2z2G,2D,4 | 
[V:1] D2E2DF2GABcd | 
[V:2] B4A4z2f2 | 
[V:3] GB2cd4c2A2 :
[V:4] G,4F,2D,2F,4 | 
[V:1] B2Ad2B2GAE^F2 | 
[V:2] de2fg2e2d4 | 
[V:3] G2D2G2B2A4 | 
[V:4] G,2A,2B,2G,2D,4 | 
[V:1] G12 |]  
[V:2] d12 |]  
[V:3] G12 |]  
[V:4] G,12 |]  



